Newaita/actions/22/view-sort-ascending.svg

<?xml version="1.0" encoding="UTF-8"?>
<svg xmlns="http://www.w3.org/2000/svg" xmlns:xlink="http://www.w3.org/1999/xlink" width="22pt" height="22pt" viewBox="0 0 22 22" version="1.1">
<g id="surface1">
<path style=" stroke:none;fill-rule:nonzero;fill:rgb(25.882354%,25.882354%,25.882354%);fill-opacity:1;" d="M 3.183594 17.226562 C 3.9375 17.226562 4.546875 17.835938 4.546875 18.589844 C 4.546875 19.34375 3.9375 19.957031 3.183594 19.957031 C 2.429688 19.957031 1.820312 19.34375 1.820312 18.589844 C 1.820312 17.835938 2.429688 17.226562 3.183594 17.226562 Z M 3.183594 17.226562 "/>
<path style=" stroke:none;fill-rule:nonzero;fill:rgb(25.882354%,25.882354%,25.882354%);fill-opacity:1;" d="M 7.050781 17.910156 L 19.328125 17.910156 C 19.707031 17.910156 20.011719 18.214844 20.011719 18.589844 C 20.011719 18.96875 19.707031 19.273438 19.328125 19.273438 L 7.050781 19.273438 C 6.671875 19.273438 6.367188 18.96875 6.367188 18.589844 C 6.367188 18.214844 6.671875 17.910156 7.050781 17.910156 Z M 7.050781 17.910156 "/>
<path style=" stroke:none;fill-rule:nonzero;fill:rgb(25.882354%,25.882354%,25.882354%);fill-opacity:1;" d="M 7.050781 12.90625 L 19.328125 12.90625 C 19.707031 12.90625 20.011719 13.210938 20.011719 13.589844 C 20.011719 13.964844 19.707031 14.269531 19.328125 14.269531 L 7.050781 14.269531 C 6.671875 14.269531 6.367188 13.964844 6.367188 13.589844 C 6.367188 13.210938 6.671875 12.90625 7.050781 12.90625 Z M 7.050781 12.90625 "/>
<path style=" stroke:none;fill-rule:nonzero;fill:rgb(25.882354%,25.882354%,25.882354%);fill-opacity:1;" d="M 7.050781 7.902344 L 19.328125 7.902344 C 19.707031 7.902344 20.011719 8.207031 20.011719 8.585938 C 20.011719 8.960938 19.707031 9.269531 19.328125 9.269531 L 7.050781 9.269531 C 6.671875 9.269531 6.367188 8.960938 6.367188 8.585938 C 6.367188 8.207031 6.671875 7.902344 7.050781 7.902344 Z M 7.050781 7.902344 "/>
<path style=" stroke:none;fill-rule:nonzero;fill:rgb(25.882354%,25.882354%,25.882354%);fill-opacity:1;" d="M 7.050781 2.902344 L 19.328125 2.902344 C 19.707031 2.902344 20.011719 3.207031 20.011719 3.582031 C 20.011719 3.960938 19.707031 4.265625 19.328125 4.265625 L 7.050781 4.265625 C 6.671875 4.265625 6.367188 3.960938 6.367188 3.582031 C 6.367188 3.207031 6.671875 2.902344 7.050781 2.902344 Z M 7.050781 2.902344 "/>
<path style=" stroke:none;fill-rule:nonzero;fill:rgb(14.901961%,65.098041%,60.392159%);fill-opacity:1;" d="M 3.183594 12.222656 C 3.9375 12.222656 4.546875 12.835938 4.546875 13.589844 C 4.546875 14.34375 3.9375 14.953125 3.183594 14.953125 C 2.429688 14.953125 1.820312 14.34375 1.820312 13.589844 C 1.820312 12.835938 2.429688 12.222656 3.183594 12.222656 Z M 3.183594 12.222656 "/>
<path style=" stroke:none;fill-rule:nonzero;fill:rgb(14.901961%,65.098041%,60.392159%);fill-opacity:1;" d="M 3.183594 7.222656 C 3.9375 7.222656 4.546875 7.832031 4.546875 8.585938 C 4.546875 9.339844 3.9375 9.949219 3.183594 9.949219 C 2.429688 9.949219 1.820312 9.339844 1.820312 8.585938 C 1.820312 7.832031 2.429688 7.222656 3.183594 7.222656 Z M 3.183594 7.222656 "/>
<path style=" stroke:none;fill-rule:nonzero;fill:rgb(14.901961%,65.098041%,60.392159%);fill-opacity:1;" d="M 3.183594 2.21875 C 3.9375 2.21875 4.546875 2.828125 4.546875 3.582031 C 4.546875 4.335938 3.9375 4.945312 3.183594 4.945312 C 2.429688 4.945312 1.820312 4.335938 1.820312 3.582031 C 1.820312 2.828125 2.429688 2.21875 3.183594 2.21875 Z M 3.183594 2.21875 "/>
</g>
</svg>

<svg xmlns="http://www.w3.org/2000/svg" width="22pt" height="22pt" viewBox="0 0 22 22"><path d="M3.184 17.227a1.365 1.365 0 0 1 0 2.73 1.365 1.365 0 0 1 0-2.73zm0 0M7.05 17.91h12.278a.681.681 0 1 1 0 1.363H7.051a.682.682 0 1 1 0-1.363zm0 0M7.05 12.906h12.278a.682.682 0 1 1 0 1.364H7.051a.681.681 0 1 1 0-1.364zm0 0M7.05 7.902h12.278a.684.684 0 0 1 0 1.367H7.051a.684.684 0 0 1 0-1.367zm0 0M7.05 2.902h12.278a.681.681 0 1 1 0 1.364H7.051a.682.682 0 1 1 0-1.364zm0 0" fill="#424242"/><path d="M3.184 12.223a1.365 1.365 0 0 1 0 2.73 1.365 1.365 0 0 1 0-2.73zm0 0M3.184 7.223a1.362 1.362 0 1 1 0 2.727c-.754 0-1.364-.61-1.364-1.364 0-.754.61-1.363 1.364-1.363zm0 0M3.184 2.219a1.362 1.362 0 1 1 0 2.727c-.754 0-1.364-.61-1.364-1.364 0-.754.61-1.363 1.364-1.363zm0 0" fill="#26a69a"/></svg>
